X: 75
T: No_172.krn
N: Derived from No_172.krn
%%abc-version 2.0
%%abcx-abcm2ps-target-version 5.9.1 (29 Sep 2008)
%%abc-creator hum2abc beta
%%abcx-conversion-date 2019/03/15 08:29:13
%%humdrum-veritas 1036814161
%%humdrum-veritas-data 3674809410
%%linebreak <none>
%%barnumbers 0
L: 1/8
M: 2/4
K: Gb clef=bass
[K:clef=bass][M:2/4]B,3/D/ (3B,A,G, | 
B,3/D/ (3B,A,D | 
B,4 | 
E,2E,2 | 
B,3/B,/ (3B,A,G, | 
(3A,G,F, (3G,A,G, | 
G,4 | 
E,/B,,3/B,,2 |]  



